src/assets/filled/CpuCharge.svg

<?xml version="1.0" encoding="UTF-8"?>
<svg width="24" height="24" viewBox="0 0 24 24" xmlns="http://www.w3.org/2000/svg">
 <path d="m13.98 7.75h-3.97c-1.25 0-2.27 1.01-2.27 2.27v3.97c0 1.25 1.01 2.27 2.27 2.27h3.97c1.25 0 2.27-1.01 2.27-2.27v-3.97c0-1.26-1.01-2.27-2.27-2.27zm-0.48 5.23-0.89 1.55c-0.13 0.23-0.37 0.35-0.61 0.35-0.12 0-0.25-0.03-0.35-0.09-0.34-0.19-0.46-0.62-0.26-0.96l0.64-1.11h-0.56c-0.45 0-0.82-0.2-1.02-0.54s-0.18-0.76 0.05-1.15l0.89-1.55c0.2-0.34 0.63-0.45 0.96-0.26 0.34 0.19 0.46 0.62 0.26 0.96l-0.64 1.11h0.56c0.45 0 0.82 0.2 1.02 0.54s0.18 0.76-0.05 1.15z"/>
 <path d="m21.25 12.75c0.42 0 0.75-0.34 0.75-0.75 0-0.42-0.33-0.75-0.75-0.75h-1.25v-2.2h1.25c0.42 0 0.75-0.33 0.75-0.75 0-0.41-0.33-0.75-0.75-0.75h-1.48c-0.48-1.59-1.73-2.84-3.32-3.32v-1.48c0-0.41-0.34-0.75-0.75-0.75s-0.75 0.34-0.75 0.75v1.25h-2.2v-1.25c0-0.41-0.34-0.75-0.75-0.75s-0.75 0.34-0.75 0.75v1.25h-2.19v-1.25c0-0.41-0.34-0.75-0.75-0.75-0.42 0-0.75 0.34-0.75 0.75v1.48c-1.6 0.48-2.85 1.73-3.33 3.32h-1.48c-0.41 0-0.75 0.34-0.75 0.75 0 0.42 0.34 0.75 0.75 0.75h1.25v2.2h-1.25c-0.41 0-0.75 0.33-0.75 0.75 0 0.41 0.34 0.75 0.75 0.75h1.25v2.2h-1.25c-0.41 0-0.75 0.33-0.75 0.75 0 0.41 0.34 0.75 0.75 0.75h1.48c0.47 1.59 1.73 2.84 3.33 3.32v1.48c0 0.41 0.33 0.75 0.75 0.75 0.41 0 0.75-0.34 0.75-0.75v-1.25h2.2v1.25c0 0.41 0.33 0.75 0.75 0.75 0.41 0 0.75-0.34 0.75-0.75v-1.25h2.19v1.25c0 0.41 0.34 0.75 0.75 0.75s0.75-0.34 0.75-0.75v-1.48c1.59-0.48 2.84-1.73 3.32-3.32h1.48c0.42 0 0.75-0.34 0.75-0.75 0-0.42-0.33-0.75-0.75-0.75h-1.25v-2.2h1.25zm-3.99 1.51c0 1.65-1.35 3-3 3h-4.52c-1.65 0-3-1.35-3-3v-4.52c0-1.65 1.35-3 3-3h4.52c1.65 0 3 1.35 3 3v4.52z"/>
</svg>

<svg width="24" height="24" viewBox="0 0 24 24"  xmlns="http://www.w3.org/2000/svg">
<path d="M13.98 7.75H10.01C8.75999 7.75 7.73999 8.76 7.73999 10.02V13.99C7.73999 15.24 8.74999 16.26 10.01 16.26H13.98C15.23 16.26 16.25 15.25 16.25 13.99V10.02C16.25 8.76 15.24 7.75 13.98 7.75ZM13.5 12.98L12.61 14.53C12.48 14.76 12.24 14.88 12 14.88C11.88 14.88 11.75 14.85 11.65 14.79C11.31 14.6 11.19 14.17 11.39 13.83L12.03 12.72H11.47C11.02 12.72 10.65 12.52 10.45 12.18C10.25 11.84 10.27 11.42 10.5 11.03L11.39 9.48C11.59 9.14 12.02 9.03 12.35 9.22C12.69 9.41 12.81 9.84 12.61 10.18L11.97 11.29H12.53C12.98 11.29 13.35 11.49 13.55 11.83C13.75 12.17 13.73 12.59 13.5 12.98Z" />
<path d="M21.25 12.75C21.67 12.75 22 12.41 22 12C22 11.58 21.67 11.25 21.25 11.25H20V9.05H21.25C21.67 9.05 22 8.72 22 8.3C22 7.89 21.67 7.55 21.25 7.55H19.77C19.29 5.96 18.04 4.71 16.45 4.23V2.75C16.45 2.34 16.11 2 15.7 2C15.29 2 14.95 2.34 14.95 2.75V4H12.75V2.75C12.75 2.34 12.41 2 12 2C11.59 2 11.25 2.34 11.25 2.75V4H9.06V2.75C9.06 2.34 8.72 2 8.31 2C7.89 2 7.56 2.34 7.56 2.75V4.23C5.96 4.71 4.71 5.96 4.23 7.55H2.75C2.34 7.55 2 7.89 2 8.3C2 8.72 2.34 9.05 2.75 9.05H4V11.25H2.75C2.34 11.25 2 11.58 2 12C2 12.41 2.34 12.75 2.75 12.75H4V14.95H2.75C2.34 14.95 2 15.28 2 15.7C2 16.11 2.34 16.45 2.75 16.45H4.23C4.7 18.04 5.96 19.29 7.56 19.77V21.25C7.56 21.66 7.89 22 8.31 22C8.72 22 9.06 21.66 9.06 21.25V20H11.26V21.25C11.26 21.66 11.59 22 12.01 22C12.42 22 12.76 21.66 12.76 21.25V20H14.95V21.25C14.95 21.66 15.29 22 15.7 22C16.11 22 16.45 21.66 16.45 21.25V19.77C18.04 19.29 19.29 18.04 19.77 16.45H21.25C21.67 16.45 22 16.11 22 15.7C22 15.28 21.67 14.95 21.25 14.95H20V12.75H21.25ZM17.26 14.26C17.26 15.91 15.91 17.26 14.26 17.26H9.74C8.09 17.26 6.74 15.91 6.74 14.26V9.74C6.74 8.09 8.09 6.74 9.74 6.74H14.26C15.91 6.74 17.26 8.09 17.26 9.74V14.26Z" />
</svg>
